X:0980
M:6/8
L:1/8
Q:3/8=112
K:B Minor
a|aba  afa |bd'b b2a|afa  bag |f2e  d2b|d'ba baf  |afe d>ef|fba  fef |d>BB B2:|

